X:1
T:Doxy
C:S. Rollins
Z:Copyright © www.realbook.site
L:1/8
M:4/4
I:linebreak $
K:Bb
V:1 treble nm=" " snm=" "
V:1
 F ||"Bb7" BdBF"Ab7" B2 z F |"G7#9" BFB_d z G2 F |"C7" =EG B_d"F7" (3cdc GB |"Bb" z4 z2 z F |$ %5
"Bb7" BdB=E"Ab7" B2 z F |"G7#9" B=EB_d z G2 F |"C7" =EG B_d (3cdc GA |"F7" z8 ||$ %9
"Bb7" g2 z f z2 _d2- | d3 G- G B2 G |"Eb7" _d2 dd G2 c2 |"Edim7" z4 z2 z F ||$ %13
"Bb7" BdBF"Ab7" B2 z =E |"G7#9" B=EB_d z G2 F |"C7" =EG B_d"F7" (3cdc GB |"Bb" z8 |] %17

